packages/gestalt/src/icons/smiley.svg

<svg width="24" height="24" xmlns="http://www.w3.org/2000/svg"><path fill="#B5B5B5" d="M12.03 19.29h-.06c-3.48-.03-4.92-2.31-4.98-2.41a.896.896 0 0 1 .27-1.22.82.82 0 0 1 1.17.26c.06.08 1.06 1.58 3.57 1.59 2.51-.01 3.52-1.6 3.56-1.67.25-.41.78-.54 1.18-.28.39.26.52.8.28 1.21-.06.1-1.5 2.49-4.99 2.52zM18 9.43c0 .95-.77 1.71-1.71 1.71-.95 0-1.72-.76-1.72-1.71s.77-1.72 1.72-1.72c.94 0 1.71.77 1.71 1.72zm-12 0c0-.95.77-1.72 1.71-1.72.95 0 1.72.77 1.72 1.72s-.77 1.71-1.72 1.71c-.94 0-1.71-.76-1.71-1.71z"/></svg>

<svg width="24" height="24" viewBox="0 0 24 24" xmlns="http://www.w3.org/2000/svg"><path fill="#B5B5B5" d="M12.03,19.29 L11.97,19.29 C8.49,19.26 7.05,16.98 6.99,16.88 C6.74,16.47 6.85,15.92 7.26,15.66 C7.65,15.39 8.18,15.51 8.43,15.92 C8.49,16.00 9.49,17.50 12.00,17.51 C14.51,17.50 15.52,15.91 15.56,15.84 C15.81,15.43 16.34,15.30 16.74,15.56 C17.13,15.82 17.26,16.36 17.02,16.77 C16.96,16.87 15.52,19.26 12.03,19.29 Z M18.00,9.43 C18.00,10.38 17.23,11.14 16.29,11.14 C15.34,11.14 14.57,10.38 14.57,9.43 C14.57,8.48 15.34,7.71 16.29,7.71 C17.23,7.71 18.00,8.48 18.00,9.43 Z M6.00,9.43 C6.00,8.48 6.77,7.71 7.71,7.71 C8.66,7.71 9.43,8.48 9.43,9.43 C9.43,10.38 8.66,11.14 7.71,11.14 C6.77,11.14 6.00,10.38 6.00,9.43 Z"/></svg>
